artyllect/static/images/content/brands/Intel-logo.svg

<?xml version="1.0" encoding="UTF-8" standalone="no"?>
<!-- Created with Inkscape (http://www.inkscape.org/) -->
<svg
   xmlns:dc="http://purl.org/dc/elements/1.1/"
   xmlns:cc="http://web.resource.org/cc/"
   xmlns:rdf="http://www.w3.org/1999/02/22-rdf-syntax-ns#"
   xmlns:svg="http://www.w3.org/2000/svg"
   xmlns="http://www.w3.org/2000/svg"
   xmlns:sodipodi="http://sodipodi.sourceforge.net/DTD/sodipodi-0.dtd"
   xmlns:inkscape="http://www.inkscape.org/namespaces/inkscape"
   id="svg2328"
   sodipodi:version="0.32"
   inkscape:version="0.45.1"
   width="293"
   height="194"
   version="1.0"
   sodipodi:docbase="C:\Documents and Settings\Alex Broersma.D2KY7761\Desktop"
   sodipodi:docname="aa.svg"
   inkscape:output_extension="org.inkscape.output.svg.inkscape">
  <metadata
     id="metadata2333">
    <rdf:RDF>
      <cc:Work
         rdf:about="">
        <dc:format>image/svg+xml</dc:format>
        <dc:type
           rdf:resource="http://purl.org/dc/dcmitype/StillImage" />
      </cc:Work>
    </rdf:RDF>
  </metadata>
  <defs
     id="defs2331" />
  <sodipodi:namedview
     inkscape:window-height="844"
     inkscape:window-width="1440"
     inkscape:pageshadow="2"
     inkscape:pageopacity="0.0"
     guidetolerance="10.0"
     gridtolerance="10.0"
     objecttolerance="10.0"
     borderopacity="1.0"
     bordercolor="#666666"
     pagecolor="#ffffff"
     id="base"
     inkscape:zoom="4.0618557"
     inkscape:cx="219.80302"
     inkscape:cy="131.76504"
     inkscape:window-x="-4"
     inkscape:window-y="-4"
     inkscape:current-layer="svg2328" />
  <path
     d="M 291.28737,55.058565 C 277.50683,-12.11587 147.525,-16.369963 63.737895,34.808098 L 63.737895,40.460487 C 147.41497,-2.7316788 266.14859,-2.4562338 276.95315,59.422033 C 280.59385,79.920851 269.12707,101.24048 248.56679,113.50757 L 248.56679,129.56114 C 273.31695,120.47998 298.61629,91.08816 291.28737,55.058565 M 138.92617,172.67053 C 81.102616,178.02238 20.853265,169.59848 12.418485,124.23687 C 8.2296052,101.90025 18.426965,78.192925 31.877897,63.483967 L 31.877897,55.608451 C 7.6234054,76.957185 -5.5514356,103.96031 2.0555709,135.84419 C 11.756767,176.75954 63.462304,199.91949 142.39931,192.20804 C 173.65361,189.19069 214.55609,179.09205 242.94244,163.42581 L 242.94244,141.16845 C 217.14544,156.61695 174.47938,169.38024 138.92617,172.67053 z "
     id="path6"
     style="fill:#127cc1;fill-opacity:1" />
  <path
     d="M 238.31142,45.347552 L 223.15342,45.347552 L 223.15342,113.16 C 223.15342,121.1244 226.95767,128.05143 238.31142,129.14959"
     id="path8"
     style="fill:#127cc1;fill-opacity:1" />
  <path
     d="M 57.729915,70.130433 L 42.57092,70.130433 L 42.57092,114.42193 C 42.57092,122.38934 46.375174,129.31386 57.729915,130.41152"
     id="path10"
     style="fill:#127cc1;fill-opacity:1" />
  <rect
     x="42.570919"
     y="47.40823"
     width="15.158995"
     height="14.425744"
     id="rect12"
     style="fill:#127cc1;fill-opacity:1" />
  <path
     d="M 148.57135,129.69867 C 136.2803,129.69867 131.09859,121.12491 131.09859,112.66317 L 131.09859,53.837923 L 146.09203,53.837923 L 146.09203,70.130433 L 157.44627,70.130433 L 157.44627,82.329722 L 146.09203,82.329722 L 146.09203,111.75641 C 146.09203,115.21716 147.74557,117.11508 151.32725,117.11508 L 157.44627,117.11508 L 157.44627,129.69867 L 148.57135,129.69867"
     id="path14"
     style="fill:#127cc1;fill-opacity:1" />
  <path
     d="M 188.42548,81.588742 C 183.30029,81.588742 179.33248,84.253255 177.67794,87.85316 C 176.68611,90.022849 176.3545,91.672094 176.19095,94.338616 L 199.39759,94.338616 C 199.06648,87.82553 196.14302,81.588742 188.42548,81.588742 M 176.19095,104.61387 C 176.19095,112.33513 181.03904,118.01982 189.52834,118.01982 C 196.19954,118.01982 199.50663,116.15155 203.3654,112.33563 L 212.62645,121.26456 C 206.67299,127.14267 200.44444,130.71544 189.41981,130.71544 C 175.03357,130.71544 161.25152,122.82991 161.25152,99.85904 C 161.25152,80.21479 173.26798,69.115166 189.0887,69.115166 C 205.12948,69.115166 214.33351,82.110693 214.33351,99.173822 L 214.33351,104.61437 L 176.19095,104.61437"
     id="path16"
     style="fill:#127cc1;fill-opacity:1" />
  <path
     d="M 98.576374,82.329722 C 102.98533,82.329722 104.80493,84.500918 104.80493,88.045061 L 104.80493,129.78055 L 119.85388,129.78055 L 119.85388,87.990304 C 119.85388,79.499933 115.33339,70.129931 102.15955,70.129931 L 71.125329,70.129931 L 71.125329,129.78005 L 86.118769,129.78005 L 86.118769,82.329219"
     id="path18"
     style="fill:#127cc1;fill-opacity:1" />
  <text
     xml:space="preserve"
     style="font-size:14.03530121px;font-style:normal;font-variant:normal;font-weight:normal;font-stretch:normal;text-align:start;line-height:125%;writing-mode:lr-tb;text-anchor:start;fill:#127cc1;fill-opacity:1;stroke:none;stroke-width:1px;stroke-linecap:butt;stroke-linejoin:miter;stroke-opacity:1;font-family:Arial"
     x="244.26051"
     y="55.85825"
     id="text2177"
     transform="scale(1.0107951,0.9893202)"
     sodipodi:linespacing="125%"><tspan
       sodipodi:role="line"
       id="tspan2179"
       x="244.26051"
       y="55.85825">®</tspan></text>
</svg>

<?xml version="1.0" encoding="utf-8"?>
<!-- Generator: Adobe Illustrator 19.2.1, SVG Export Plug-In . SVG Version: 6.00 Build 0)  -->
<svg version="1.1" id="svg2328" xmlns="http://www.w3.org/2000/svg" xmlns:xlink="http://www.w3.org/1999/xlink" x="0px" y="0px"
	 viewBox="0 0 293 194" style="enable-background:new 0 0 293 194;" xml:space="preserve">
<style type="text/css">
	.st0{fill:#127CC1;}
	.st1{font-family:'ArialMT';}
	.st2{font-size:13.8854px;}
</style>
<path id="path6" class="st0" d="M291.3,55.1C277.5-12.1,147.5-16.4,63.7,34.8v5.7C147.4-2.7,266.1-2.5,277,59.4
	c3.6,20.5-7.8,41.8-28.4,54.1v16.1C273.3,120.5,298.6,91.1,291.3,55.1 M138.9,172.7c-57.8,5.4-118.1-3.1-126.5-48.4
	c-4.2-22.3,6-46,19.5-60.8v-7.9C7.6,77-5.6,104,2.1,135.8c9.7,40.9,61.4,64.1,140.3,56.4c31.3-3,72.2-13.1,100.5-28.8v-22.3
	C217.1,156.6,174.5,169.4,138.9,172.7z"/>
<path id="path8" class="st0" d="M238.3,45.3h-15.2v67.8c0,8,3.8,14.9,15.2,16"/>
<path id="path10" class="st0" d="M57.7,70.1H42.6v44.3c0,8,3.8,14.9,15.2,16"/>
<rect id="rect12" x="42.6" y="47.4" class="st0" width="15.2" height="14.4"/>
<path id="path14" class="st0" d="M148.6,129.7c-12.3,0-17.5-8.6-17.5-17V53.8h15v16.3h11.4v12.2h-11.4v29.4c0,3.5,1.7,5.4,5.2,5.4
	h6.1v12.6H148.6"/>
<path id="path16" class="st0" d="M188.4,81.6c-5.1,0-9.1,2.7-10.7,6.3c-1,2.2-1.3,3.8-1.5,6.5h23.2
	C199.1,87.8,196.1,81.6,188.4,81.6 M176.2,104.6c0,7.7,4.8,13.4,13.3,13.4c6.7,0,10-1.9,13.8-5.7l9.3,8.9c-6,5.9-12.2,9.5-23.2,9.5
	c-14.4,0-28.2-7.9-28.2-30.9c0-19.6,12-30.7,27.8-30.7c16,0,25.2,13,25.2,30.1v5.4L176.2,104.6"/>
<path id="path18" class="st0" d="M98.6,82.3c4.4,0,6.2,2.2,6.2,5.7v41.7h15V88c0-8.5-4.5-17.9-17.7-17.9h-31v59.7h15V82.3"/>
<text transform="matrix(1.0217 0 0 1 246.8975 55.2617)" class="st0 st1 st2">®</text>
</svg>
